svg/icon/nuls.svg

<svg height="32" viewBox="0 0 32 32" width="32" xmlns="http://www.w3.org/2000/svg" xmlns:xlink="http://www.w3.org/1999/xlink"><defs><linearGradient id="a" x1="50%" x2="50%" y1="0%" y2="100%"><stop offset="0" stop-color="#fff" stop-opacity=".5"/><stop offset="1" stop-opacity=".5"/></linearGradient><circle id="b" cx="16" cy="15" r="15"/><filter id="c" height="111.7%" width="111.7%" x="-5.8%" y="-4.2%"><feOffset dy=".5" in="SourceAlpha" result="shadowOffsetOuter1"/><feGaussianBlur in="shadowOffsetOuter1" result="shadowBlurOuter1" stdDeviation=".5"/><feComposite in="shadowBlurOuter1" in2="SourceAlpha" operator="out" result="shadowBlurOuter1"/><feColorMatrix in="shadowBlurOuter1" values="0 0 0 0 0   0 0 0 0 0   0 0 0 0 0  0 0 0 0.199473505 0"/></filter><path id="d" d="m14.403078 18.3599645 1.5969228 2.1038615v4.536174l-5.9999992-2.6631158v-11.7177098c-.00041247-.1732882.0769762-.3383135.2123077-.4527297l.6830768-.58588545c.1315585-.11466403.3079032-.16961758.4843889-.15094805.1764858.01866952.3361928.10917228.4386879.24859564l5.4646147 7.16378166 3.0184611 1.8464269v-9.88015974l-2.6676919-1.33155792-.1292308 6.19618286-1.4123075-1.8730581-.0646154-6.7998225 5.9723069 2.77851753v11.66444737l-1.3569229 1.1185087-4.2738456-2.3879272-4.7446147-6.222814-.0646154 9.4540612 2.824615 1.4469596z"/><filter id="e" height="117.5%" width="129.2%" x="-14.6%" y="-6.2%"><feOffset dy=".5" in="SourceAlpha" result="shadowOffsetOuter1"/><feGaussianBlur in="shadowOffsetOuter1" result="shadowBlurOuter1" stdDeviation=".5"/><feColorMatrix in="shadowBlurOuter1" values="0 0 0 0 0   0 0 0 0 0   0 0 0 0 0  0 0 0 0.204257246 0"/></filter></defs><g fill="none" fill-rule="evenodd"><use fill="#000" filter="url(#c)" xlink:href="#b"/><use fill="#82bd39" xlink:href="#b"/><use fill="url(#a)" xlink:href="#b"/><circle cx="16" cy="15" r="14.5" stroke="#000" stroke-opacity=".097"/><g fill-rule="nonzero"><use fill="#000" filter="url(#e)" xlink:href="#d"/><use fill="#fff" fill-rule="evenodd" xlink:href="#d"/></g></g></svg>

<svg xmlns="http://www.w3.org/2000/svg" xmlns:xlink="http://www.w3.org/1999/xlink" width="32" height="32" viewBox="0 0 32 32">
  <defs>
    <linearGradient id="nuls-c" x1="50%" x2="50%" y1="0%" y2="100%">
      <stop offset="0%" stop-color="#FFF" stop-opacity=".5"/>
      <stop offset="100%" stop-opacity=".5"/>
    </linearGradient>
    <circle id="nuls-b" cx="16" cy="15" r="15"/>
    <filter id="nuls-a" width="111.7%" height="111.7%" x="-5.8%" y="-4.2%" filterUnits="objectBoundingBox">
      <feOffset dy=".5" in="SourceAlpha" result="shadowOffsetOuter1"/>
      <feGaussianBlur in="shadowOffsetOuter1" result="shadowBlurOuter1" stdDeviation=".5"/>
      <feComposite in="shadowBlurOuter1" in2="SourceAlpha" operator="out" result="shadowBlurOuter1"/>
      <feColorMatrix in="shadowBlurOuter1" values="0 0 0 0 0   0 0 0 0 0   0 0 0 0 0  0 0 0 0.199473505 0"/>
    </filter>
    <path id="nuls-e" d="M14.403078,18.3599645 L16.0000008,20.463826 L16.0000008,25 L10.0000016,22.3368842 L10.0000016,10.6191744 C9.99958913,10.4458862 10.0769778,10.2808609 10.2123093,10.1664447 L10.8953861,9.58055925 C11.0269446,9.46589522 11.2032893,9.41094167 11.379775,9.4296112 C11.5562608,9.44828072 11.7159678,9.53878348 11.8184629,9.67820684 L17.2830776,16.8419885 L20.3015387,18.6884154 L20.3015387,8.80825566 L17.6338468,7.47669774 L17.504616,13.6728806 L16.0923085,11.7998225 L16.0276931,5 L22,7.77851753 L22,19.4429649 L20.6430771,20.5614736 L16.3692315,18.1735464 L11.6246168,11.9507324 L11.5600014,21.4047936 L14.3846164,22.8517532 L14.403078,18.3599645 Z"/>
    <filter id="nuls-d" width="129.2%" height="117.5%" x="-14.6%" y="-6.2%" filterUnits="objectBoundingBox">
      <feOffset dy=".5" in="SourceAlpha" result="shadowOffsetOuter1"/>
      <feGaussianBlur in="shadowOffsetOuter1" result="shadowBlurOuter1" stdDeviation=".5"/>
      <feColorMatrix in="shadowBlurOuter1" values="0 0 0 0 0   0 0 0 0 0   0 0 0 0 0  0 0 0 0.204257246 0"/>
    </filter>
  </defs>
  <g fill="none" fill-rule="evenodd">
    <use fill="#000" filter="url(#nuls-a)" xlink:href="#nuls-b"/>
    <use fill="#82BD39" xlink:href="#nuls-b"/>
    <use fill="url(#nuls-c)" style="mix-blend-mode:soft-light" xlink:href="#nuls-b"/>
    <circle cx="16" cy="15" r="14.5" stroke="#000" stroke-opacity=".097"/>
    <g fill-rule="nonzero">
      <use fill="#000" filter="url(#nuls-d)" xlink:href="#nuls-e"/>
      <use fill="#FFF" fill-rule="evenodd" xlink:href="#nuls-e"/>
    </g>
  </g>
</svg>
